X: 6516
T: Cat's Meow, The
R: jig
M: 6/8
K: Dmajor
|:FAd f3|afe d2A|Bc/d/B BAF|dAF E2A|
FAd f3|afe d2A|Bc/d/e fdB|1 AFE D3:|2 AFE D2e||
|:fdB AFA|DFA def|g3 ged|ced cBA|
fdB A3|DFA def|g3 age|1 edc d2e:|2 edc d2B|
|:Adf a3|agf a3|Ace g3|gfe g3|
fdf g3|a3 bag|f3 gec|1 edc d2B:|2 edc d3||

